source/images/icons/icon-editorial/plume.svg

<?xml version="1.0" encoding="UTF-8"?>
<svg width="80px" height="80px" viewBox="0 0 80 80" version="1.1" xmlns="http://www.w3.org/2000/svg" xmlns:xlink="http://www.w3.org/1999/xlink">
    <!-- Generator: Sketch 55.2 (78181) - https://sketchapp.com -->
    <title>Illustrative Icons/Plume</title>
    <desc>Created with Sketch.</desc>
    <g id="Illustrative-Icons/Plume" stroke="none" stroke-width="1" fill="none" fill-rule="evenodd">
        <path d="M25.5423422,13.3333333 L55.1673422,13.3333333 C56.0878168,13.3333333 56.8340089,12.5871413 56.8340089,11.6666667 C56.8340089,10.7461921 56.0878168,10 55.1673422,10 L25.5423422,10 C24.6218676,10 23.8756755,10.7461921 23.8756755,11.6666667 C23.8756755,12.5871413 24.6218676,13.3333333 25.5423422,13.3333333 Z M58.5223422,42.6533334 L50.6673422,25.0833334 L50.5873422,18.3133333 C50.5763895,17.4006787 49.8333958,16.6666667 48.9206755,16.6666667 L31.9206755,16.6666667 C31.0002009,16.6666667 30.2540088,17.4128588 30.2540088,18.3333333 L30.2540088,25 L22.1523421,42.6383334 C21.9224706,43.1383868 21.9542797,43.7196815 22.2373421,44.1916667 L37.2373422,69.1916667 C37.5389105,69.6936116 38.0817725,70.0000006 38.6673422,70.0000006 L42.0006755,70.0000006 C42.5865817,70.0000006 43.1295197,69.6925847 43.4306755,69.1900001 L58.4306755,44.19 C58.7101242,43.7234153 58.7443402,43.1498309 58.5223422,42.6533334 L58.5223422,42.6533334 Z M42.0006755,65.0933334 L42.0006755,43.3333334 C42.0006755,42.4128588 41.2544834,41.6666667 40.3340088,41.6666667 C39.4135343,41.6666667 38.6673422,42.4128588 38.6673422,43.3333334 L38.6673422,65.0933334 L25.5490088,43.23 L33.4323422,26.0633334 C33.532324,25.8452808 33.5840577,25.6082151 33.5840088,25.3683334 L33.5840088,20 L47.2706755,20 L47.3340088,25.4683334 C47.3358549,25.6981767 47.3852225,25.9251537 47.4790088,26.135 L55.1240089,43.2266667 L42.0006755,65.0933334 Z M40.3340088,36.6666667 C41.2544834,36.6666667 42.0006755,35.9204746 42.0006755,35 C42.0006755,34.0795254 41.2544834,33.3333334 40.3340088,33.3333334 C39.4135343,33.3333334 38.6673422,34.0795254 38.6673422,35 C38.6673422,35.9204746 39.4135343,36.6666667 40.3340088,36.6666667 Z" id="Shape-color" fill="#ADB5BD"></path>
    </g>
</svg>

<svg width="80" height="80">
    <title>
        Illustrative Icons/Plume
    </title>
    <path d="M25.542 13.333h29.625a1.667 1.667 0 1 0 0-3.333H25.542a1.667 1.667 0 0 0 0 3.333zm32.98 29.32l-7.855-17.57-.08-6.77a1.667 1.667 0 0 0-1.666-1.646h-17c-.92 0-1.667.746-1.667 1.666V25l-8.102 17.638c-.23.5-.198 1.082.085 1.554l15 25c.302.502.845.808 1.43.808h3.334c.586 0 1.129-.307 1.43-.81l15-25c.28-.467.313-1.04.091-1.537zm-16.521 22.44v-21.76a1.667 1.667 0 0 0-3.334 0v21.76L25.55 43.23l7.883-17.167c.1-.218.152-.455.152-.695V20h13.687l.063 5.468c.002.23.051.457.145.667l7.645 17.092-13.123 21.866zm-1.667-28.426a1.667 1.667 0 1 0 0-3.334 1.667 1.667 0 0 0 0 3.334z" fill="#ADB5BD" fill-rule="evenodd"/>
</svg>
